;FLAVOR:Marlin
;TIME:2584
;Filament used: 3.5751m
;Layer height: 0.4
;MINX:75.2
;MINY:75.062
;MINZ:0.3
;MAXX:144.8
;MAXY:144.932
;MAXZ:11.1
;Generated with Cura_SteamEngine 5.2.1
M140 S60
M105
M190 S60
M104 S200
M105
M109 S200
M82 ;absolute extrusion mode
G21 ;metric values
G90 ;absolute positioning
M82 ;set extruder to absolute mode
M107 ;start with the fan off
G28 X0 Y0 ;move X/Y to min endstops
G28 Z0 ;move Z to min endstops
G1 Z15.0 F9000 ;move the platform down 15mm
G92 E0 ;zero the extruded length
G1 F200 E3 ;extrude 3mm of feed stock
G92 E0 ;zero the extruded length again
G1 F9000;Put printing message on LCD screen
M117 Printing..0
G92 E0
G92 E0
G1 F1500 E-6.5
;LAYER_COUNT:28
;LAYER:0
M107
M204 S1000
G0 F7500 X77.623 Y77.211 Z0.3
;TYPE:SKIRT
G1 F1500 E0
G1 X78.222 Y76.696 E0.03941
G1 X78.87 Y76.245 E0.0788
G1 X79.561 Y75.861 E0.11824
G1 X80.286 Y75.549 E0.15762
G1 X81.039 Y75.312 E0.197
G1 X81.813 Y75.153 E0.23642
G1 X82.598 Y75.072 E0.27579
G1 X83 Y75.062 E0.29586
G1 X137 Y75.063 E2.98993
G1 X137.789 Y75.103 E3.02934
G1 X138.569 Y75.223 E3.06871
G1 X139.334 Y75.42 E3.10812
G1 X140.074 Y75.694 E3.14749
G1 X140.784 Y76.042 E3.18694
G1 X141.454 Y76.46 E3.22634
G1 X142.078 Y76.943 E3.26571
G1 X142.651 Y77.487 E3.30512
G1 X143.166 Y78.086 E3.34454
G1 X143.617 Y78.733 E3.38388
G1 X144.001 Y79.424 E3.42332
G1 X144.313 Y80.149 E3.4627
G1 X144.55 Y80.902 E3.50208
G1 X144.709 Y81.676 E3.54151
G1 X144.79 Y82.461 E3.58088
G1 X144.8 Y82.863 E3.60094
G1 X144.8 Y137.131 E6.30838
G1 X144.76 Y137.92 E6.34779
G1 X144.641 Y138.7 E6.38716
G1 X144.443 Y139.465 E6.42658
G1 X144.169 Y140.205 E6.46595
G1 X143.821 Y140.914 E6.50535
G1 X143.403 Y141.585 E6.5448
G1 X142.92 Y142.209 E6.58416
G1 X142.377 Y142.782 E6.62355
G1 X141.778 Y143.297 E6.66296
G1 X141.13 Y143.748 E6.70235
G1 X140.439 Y144.132 E6.74179
G1 X139.714 Y144.444 E6.78116
G1 X138.961 Y144.681 E6.82055
G1 X138.187 Y144.84 E6.85997
G1 X137.402 Y144.921 E6.89934
G1 X137 Y144.931 E6.9194
G1 X83 Y144.932 E9.61347
G1 X82.211 Y144.892 E9.65289
G1 X81.431 Y144.773 E9.69225
G1 X80.666 Y144.575 E9.73168
G1 X79.926 Y144.301 E9.77104
G1 X79.217 Y143.953 E9.81045
G1 X78.546 Y143.536 E9.84986
G1 X77.922 Y143.052 E9.88926
G1 X77.349 Y142.509 E9.92864
G1 X76.834 Y141.91 E9.96806
G1 X76.383 Y141.262 E10.00744
G1 X75.999 Y140.572 E10.04684
G1 X75.687 Y139.846 E10.08626
G1 X75.45 Y139.093 E10.12565
G1 X75.291 Y138.319 E10.16507
G1 X75.21 Y137.534 E10.20444
G1 X75.2 Y137.132 E10.2245
G1 X75.2 Y82.862 E12.93204
G1 X75.24 Y82.073 E12.97146
G1 X75.359 Y81.293 E13.01082
G1 X75.557 Y80.528 E13.05025
G1 X75.831 Y79.788 E13.08961
G1 X76.179 Y79.079 E13.12902
G1 X76.597 Y78.408 E13.16846
G1 X77.08 Y77.784 E13.20783
G1 X77.623 Y77.211 E13.24721
G0 F7500 X78.016 Y77.392
G1 F1500 X78.611 Y76.904 E13.2856
G1 X79.253 Y76.481 E13.32396
G1 X79.936 Y76.126 E13.36236
G1 X80.651 Y75.845 E13.40069
G1 X81.393 Y75.639 E13.43911
G1 X82.151 Y75.511 E13.47746
G1 X83 Y75.462 E13.51989
G1 X137 Y75.463 E16.21396
G1 X137.768 Y75.503 E16.25233
G1 X138.528 Y75.622 E16.2907
G1 X139.271 Y75.82 E16.32907
G1 X139.99 Y76.094 E16.36745
G1 X140.677 Y76.441 E16.40585
G1 X141.323 Y76.857 E16.44419
G1 X141.923 Y77.338 E16.48255
G1 X142.47 Y77.879 E16.52093
G1 X142.958 Y78.474 E16.55933
G1 X143.381 Y79.116 E16.59768
G1 X143.736 Y79.799 E16.63609
G1 X144.017 Y80.515 E16.67446
G1 X144.223 Y81.256 E16.71283
G1 X144.351 Y82.014 E16.75118
G1 X144.4 Y82.863 E16.79361
G1 X144.4 Y137.131 E19.50105
G1 X144.36 Y137.899 E19.53942
G1 X144.241 Y138.659 E19.5778
G1 X144.043 Y139.402 E19.61616
G1 X143.769 Y140.121 E19.65455
G1 X143.422 Y140.807 E19.6929
G1 X143.006 Y141.454 E19.73128
G1 X142.525 Y142.054 E19.76964
G1 X141.984 Y142.601 E19.80802
G1 X141.389 Y143.089 E19.84642
G1 X140.747 Y143.512 E19.88477
G1 X140.064 Y143.867 E19.92318
G1 X139.349 Y144.148 E19.9615
G1 X138.607 Y144.354 E19.99992
G1 X137.849 Y144.482 E20.03827
G1 X137 Y144.531 E20.0807
G1 X83 Y144.532 E22.77477
G1 X82.232 Y144.492 E22.81314
G1 X81.472 Y144.373 E22.85152
G1 X80.729 Y144.175 E22.88988
G1 X80.01 Y143.901 E22.92827
G1 X79.324 Y143.554 E22.96662
G1 X78.677 Y143.138 E23.005
G1 X78.077 Y142.657 E23.04336
G1 X77.53 Y142.116 E23.08175
G1 X77.042 Y141.521 E23.12014
G1 X76.619 Y140.879 E23.15849
G1 X76.264 Y140.196 E23.1969
G1 X75.983 Y139.481 E23.23523
G1 X75.777 Y138.74 E23.2736
G1 X75.649 Y137.981 E23.312
G1 X75.6 Y137.132 E23.35442
G1 X75.6 Y82.862 E26.06197
G1 X75.64 Y82.094 E26.10033
G1 X75.759 Y81.334 E26.13871
G1 X75.957 Y80.591 E26.17707
G1 X76.231 Y79.872 E26.21546
G1 X76.578 Y79.186 E26.25382
G1 X76.994 Y78.539 E26.29219
G1 X77.475 Y77.939 E26.33056
G1 X78.016 Y77.392 E26.36894
G0 F7500 X78.408 Y77.578
G1 F1500 X78.998 Y77.119 E26.40623
G1 X79.634 Y76.724 E26.44358
G1 X80.308 Y76.4 E26.48089
G1 X81.013 Y76.15 E26.51821
G1 X81.741 Y75.976 E26.55556
G1 X82.483 Y75.881 E26.59288
G1 X83 Y75.862 E26.61869
G1 X137 Y75.863 E29.31276
G1 X137.747 Y75.903 E29.35008
G1 X138.486 Y76.022 E29.38742
G1 X139.207 Y76.22 E29.42473
G1 X139.903 Y76.494 E29.46204
G1 X140.567 Y76.84 E29.4994
G1 X141.189 Y77.255 E29.5367
G1 X141.763 Y77.734 E29.574
G1 X142.284 Y78.271 E29.61133
G1 X142.743 Y78.861 E29.64862
G1 X143.138 Y79.497 E29.68597
G1 X143.462 Y80.171 E29.72328
G1 X143.712 Y80.876 E29.7606
G1 X143.886 Y81.604 E29.79795
G1 X143.981 Y82.346 E29.83527
G1 X144 Y82.863 E29.86108
G1 X144 Y137.131 E32.56852
G1 X143.96 Y137.878 E32.60584
G1 X143.841 Y138.616 E32.64313
G1 X143.643 Y139.338 E32.68049
G1 X143.37 Y140.034 E32.71778
G1 X143.023 Y140.697 E32.75512
G1 X142.608 Y141.32 E32.79246
G1 X142.129 Y141.894 E32.82976
G1 X141.592 Y142.415 E32.86709
G1 X141.002 Y142.874 E32.90438
G1 X140.366 Y143.269 E32.94174
G1 X139.692 Y143.593 E32.97905
G1 X138.987 Y143.843 E33.01636
G1 X138.259 Y144.017 E33.05371
G1 X137.517 Y144.112 E33.09103
G1 X137 Y144.131 E33.11684
G1 X83 Y144.132 E35.81091
G1 X82.253 Y144.092 E35.84823
G1 X81.515 Y143.973 E35.88553
G1 X80.793 Y143.775 E35.92288
G1 X80.097 Y143.502 E35.96018
G1 X79.434 Y143.155 E35.99751
G1 X78.811 Y142.74 E36.03486
G1 X78.237 Y142.261 E36.07215
G1 X77.717 Y141.724 E36.10945
G1 X77.257 Y141.134 E36.14677
G1 X76.862 Y140.498 E36.18412
G1 X76.538 Y139.824 E36.22143
G1 X76.288 Y139.119 E36.25875
G1 X76.114 Y138.391 E36.29609
G1 X76.019 Y137.649 E36.33342
G1 X76 Y137.132 E36.35923
G1 X76 Y82.862 E39.06677
G1 X76.04 Y82.115 E39.10409
G1 X76.159 Y81.377 E39.14138
G1 X76.357 Y80.655 E39.17873
G1 X76.63 Y79.959 E39.21603
G1 X76.977 Y79.296 E39.25337
G1 X77.392 Y78.673 E39.29071
G1 X77.871 Y78.099 E39.32801
G1 X78.408 Y77.578 E39.36534
G0 F7500 X78.799 Y77.771
G1 F1500 X79.384 Y77.341 E39.40156
G1 X80.013 Y76.977 E39.43782
G1 X80.678 Y76.684 E39.47407
G1 X81.371 Y76.466 E39.51032
G1 X82.083 Y76.326 E39.54652
G1 X83 Y76.262 E39.59238
G1 X137 Y76.263 E42.28645
G1 X137.725 Y76.303 E42.32268
G1 X138.442 Y76.422 E42.35894
G1 X139.141 Y76.62 E42.39518
G1 X139.814 Y76.893 E42.43141
G1 X140.453 Y77.238 E42.46764
G1 X141.05 Y77.652 E42.50389
G1 X141.598 Y78.128 E42.5401
G1 X142.091 Y78.662 E42.57636
G1 X142.521 Y79.247 E42.61258
G1 X142.885 Y79.876 E42.64884
G1 X143.178 Y80.541 E42.6851
G1 X143.396 Y81.234 E42.72134
G1 X143.536 Y81.946 E42.75754
G1 X143.6 Y82.863 E42.8034
G1 X143.6 Y137.131 E45.51084
G1 X143.56 Y137.856 E45.54707
G1 X143.441 Y138.573 E45.58333
G1 X143.243 Y139.272 E45.61958
G1 X142.97 Y139.945 E45.65581
G1 X142.625 Y140.584 E45.69204
G1 X142.211 Y141.181 E45.72828
G1 X141.735 Y141.729 E45.7645
G1 X141.201 Y142.222 E45.80076
G1 X140.616 Y142.652 E45.83698
G1 X139.987 Y143.016 E45.87323
G1 X139.322 Y143.309 E45.90949
G1 X138.629 Y143.527 E45.94573
G1 X137.917 Y143.667 E45.98194
G1 X137 Y143.731 E46.0278
G1 X83 Y143.732 E48.72187
G1 X82.275 Y143.692 E48.75809
G1 X81.558 Y143.573 E48.79435
G1 X80.859 Y143.375 E48.8306
G1 X80.186 Y143.102 E48.86683
G1 X79.547 Y142.757 E48.90306
G1 X78.95 Y142.343 E48.93931
G1 X78.402 Y141.867 E48.97552
G1 X77.909 Y141.333 E49.01178
G1 X77.479 Y140.748 E49.048
G1 X77.115 Y140.119 E49.08426
G1 X76.822 Y139.455 E49.12047
G1 X76.604 Y138.762 E49.15671
G1 X76.464 Y138.049 E49.19296
G1 X76.4 Y137.132 E49.23882
G1 X76.4 Y82.862 E51.94636
G1 X76.44 Y82.137 E51.98259
G1 X76.559 Y81.42 E52.01885
G1 X76.757 Y80.721 E52.0551
G1 X77.03 Y80.048 E52.09133
G1 X77.375 Y79.409 E52.12756
G1 X77.789 Y78.812 E52.1638
G1 X78.265 Y78.264 E52.20002
G1 X78.799 Y77.771 E52.23628
G0 F7500 X79.189 Y77.971
G1 F1500 X79.768 Y77.571 E52.27139
G1 X80.389 Y77.239 E52.30652
G1 X81.043 Y76.979 E52.34163
G1 X81.723 Y76.795 E52.37677
G1 X82.419 Y76.689 E52.4119
G1 X83 Y76.662 E52.44092
G1 X137 Y76.663 E55.13499
G1 X137.703 Y76.703 E55.17012
G1 X138.397 Y76.822 E55.20525
G1 X139.073 Y77.02 E55.24039
G1 X139.722 Y77.292 E55.2755
G1 X140.336 Y77.637 E55.31063
G1 X140.907 Y78.049 E55.34576
G1 X141.427 Y78.522 E55.38083
G1 X141.891 Y79.052 E55.41597
G1 X142.291 Y79.631 E55.45108
G1 X142.623 Y80.252 E55.48622
G1 X142.883 Y80.906 E55.52133
G1 X143.067 Y81.586 E55.55647
G1 X143.173 Y82.282 E55.5916
G1 X143.2 Y82.863 E55.62061
G1 X143.2 Y137.131 E58.32806
G1 X143.16 Y137.834 E58.36319
G1 X143.041 Y138.528 E58.39831
G1 X142.843 Y139.203 E58.43341
G1 X142.571 Y139.852 E58.46852
G1 X142.226 Y140.466 E58.50365
G1 X141.815 Y141.037 E58.53875
G1 X141.341 Y141.558 E58.57389
G1 X140.811 Y142.022 E58.60904
G1 X140.232 Y142.422 E58.64415
G1 X139.611 Y142.754 E58.67928
G1 X138.957 Y143.014 E58.71439
G1 X138.277 Y143.198 E58.74954
G1 X137.581 Y143.304 E58.78466
G1 X137 Y143.331 E58.81368
G1 X83 Y143.332 E61.50775
G1 X82.297 Y143.292 E61.54288
G1 X81.603 Y143.173 E61.57801
G1 X80.928 Y142.975 E61.6131
G1 X80.279 Y142.703 E61.64821
G1 X79.665 Y142.358 E61.68335
G1 X79.094 Y141.947 E61.71845
G1 X78.573 Y141.473 E61.75359
G1 X78.109 Y140.943 E61.78873
G1 X77.709 Y140.364 E61.82384
G1 X77.377 Y139.743 E61.85897
G1 X77.117 Y139.089 E61.89408
G1 X76.933 Y138.409 E61.92923
G1 X76.827 Y137.713 E61.96435
G1 X76.8 Y137.132 E61.99337
G1 X76.8 Y82.862 E64.70091
G1 X76.84 Y82.159 E64.73604
G1 X76.959 Y81.465 E64.77117
G1 X77.157 Y80.79 E64.80626
G1 X77.429 Y80.141 E64.84137
G1 X77.774 Y79.527 E64.87651
G1 X78.185 Y78.956 E64.91161
G1 X78.659 Y78.435 E64.94675
G1 X79.189 Y77.971 E64.98189
G0 F7500 X79.578 Y78.179
G1 F1500 X80.15 Y77.81 E65.01585
G1 X80.762 Y77.511 E65.04983
G1 X81.404 Y77.286 E65.08377
G1 X82.069 Y77.137 E65.11777
G1 X83 Y77.062 E65.16437
G1 X137 Y77.063 E67.85844
G1 X137.68 Y77.103 E67.89243
G1 X138.35 Y77.222 E67.92638
G1 X139.002 Y77.419 E67.96036
G1 X139.626 Y77.692 E67.99434
G1 X140.214 Y78.035 E68.0283
G1 X140.758 Y78.445 E68.06228
G1 X141.25 Y78.916 E68.09626
G1 X141.683 Y79.441 E68.13022
G1 X142.052 Y80.013 E68.16418
G1 X142.351 Y80.625 E68.19816
G1 X142.576 Y81.267 E68.2321
G1 X142.725 Y81.932 E68.2661
G1 X142.8 Y82.863 E68.3127
G1 X142.8 Y137.131 E71.02014
G1 X142.76 Y137.811 E71.05412
G1 X142.641 Y138.481 E71.08807
G1 X142.444 Y139.133 E71.12205
G1 X142.172 Y139.757 E71.15601
G1 X141.828 Y140.345 E71.19
G1 X141.418 Y140.889 E71.22398
G1 X140.947 Y141.38 E71.25793
G1 X140.422 Y141.814 E71.29191
G1 X139.85 Y142.183 E71.32587
G1 X139.238 Y142.482 E71.35985
G1 X138.596 Y142.707 E71.39379
G1 X137.931 Y142.856 E71.42779
G1 X137 Y142.931 E71.47439
G1 X83 Y142.932 E74.16846
G1 X82.32 Y142.892 E74.20245
G1 X81.65 Y142.773 E74.2364
G1 X80.998 Y142.576 E74.27038
G1 X80.374 Y142.304 E74.30434
G1 X79.786 Y141.96 E74.33832
G1 X79.243 Y141.55 E74.37227
G1 X78.751 Y141.08 E74.40622
G1 X78.317 Y140.554 E74.44024
G1 X77.948 Y139.982 E74.4742
G1 X77.649 Y139.37 E74.50818
G1 X77.424 Y138.728 E74.54212
G1 X77.275 Y138.063 E74.57612
G1 X77.2 Y137.132 E74.62272
G1 X77.2 Y82.862 E77.33026
G1 X77.24 Y82.182 E77.36424
G1 X77.359 Y81.512 E77.39819
G1 X77.556 Y80.86 E77.43217
G1 X77.828 Y80.236 E77.46613
G1 X78.172 Y79.648 E77.50012
G1 X78.582 Y79.104 E77.5341
G1 X79.053 Y78.613 E77.56805
G1 X79.578 Y78.179 E77.60203
G0 F7500 X79.965 Y78.396
G1 F1500 X80.529 Y78.06 E77.63479
G1 X81.131 Y77.796 E77.66758
G1 X81.76 Y77.606 E77.70036
G1 X82.407 Y77.495 E77.73311
G1 X83 Y77.462 E77.76274
G1 X137 Y77.463 E80.45681
G1 X137.656 Y77.503 E80.4896
G1 X138.302 Y77.622 E80.52237
G1 X138.929 Y77.819 E80.55516
G1 X139.527 Y78.091 E80.58794
G1 X140.088 Y78.433 E80.62072
G1 X140.603 Y78.841 E80.6535
G1 X141.065 Y79.308 E80.68627
G1 X141.466 Y79.828 E80.71903
G1 X141.802 Y80.393 E80.75183
G1 X142.066 Y80.994 E80.78458
G1 X142.256 Y81.623 E80.81736
G1 X142.367 Y82.27 E80.85011
G1 X142.4 Y82.863 E80.87974
G1 X142.4 Y137.131 E83.58718
G1 X142.36 Y137.787 E83.61997
G1 X142.241 Y138.433 E83.65274
G1 X142.044 Y139.06 E83.68553
G1 X141.772 Y139.658 E83.71831
G1 X141.43 Y140.219 E83.75108
G1 X141.022 Y140.734 E83.78386
G1 X140.555 Y141.196 E83.81664
G1 X140.035 Y141.597 E83.8494
G1 X139.471 Y141.933 E83.88215
G1 X138.869 Y142.197 E83.91495
G1 X138.24 Y142.387 E83.94773
G1 X137.593 Y142.498 E83.98048
G1 X137 Y142.531 E84.01011
G1 X83 Y142.532 E86.70418
G1 X82.344 Y142.492 E86.73697
G1 X81.698 Y142.373 E86.76974
G1 X81.072 Y142.176 E86.80248
G1 X80.473 Y141.904 E86.8353
G1 X79.912 Y141.562 E86.86808
G1 X79.397 Y141.155 E86.90083
G1 X78.936 Y140.687 E86.9336
G1 X78.534 Y140.167 E86.96639
G1 X78.198 Y139.603 E86.99915
G1 X77.934 Y139.001 E87.03194
G1 X77.744 Y138.372 E87.06472
G1 X77.633 Y137.725 E87.09747
G1 X77.6 Y137.132 E87.12711
G1 X77.6 Y82.862 E89.83465
G1 X77.64 Y82.206 E89.86744
G1 X77.759 Y81.56 E89.90021
G1 X77.956 Y80.933 E89.933
G1 X78.228 Y80.335 E89.96577
G1 X78.57 Y79.774 E89.99855
G1 X78.978 Y79.259 E90.03133
G1 X79.445 Y78.797 E90.0641
G1 X79.965 Y78.396 E90.09686
G0 F7500 X80.35 Y78.622
G1 F1500 X80.906 Y78.322 E90.12838
G1 X81.495 Y78.094 E90.15989
G1 X82.109 Y77.942 E90.19145
G1 X83 Y77.862 E90.23608
G1 X137 Y77.863 E92.93015
G1 X137.631 Y77.903 E92.9617
G1 X138.252 Y78.022 E92.99324
G1 X138.853 Y78.219 E93.0248
G1 X139.424 Y78.49 E93.05633
G1 X139.956 Y78.83 E93.08783
G1 X140.441 Y79.236 E93.11938
G1 X140.871 Y79.699 E93.15091
G1 X141.24 Y80.213 E93.18247
G1 X141.54 Y80.769 E93.21399
G1 X141.768 Y81.358 E93.2455
G1 X141.92 Y81.972 E93.27706
G1 X142 Y82.863 E93.32169
G1 X142 Y137.131 E96.02913
G1 X141.96 Y137.762 E96.06068
G1 X141.841 Y138.383 E96.09222
G1 X141.644 Y138.983 E96.12373
G1 X141.373 Y139.555 E96.15531
G1 X141.033 Y140.087 E96.18681
G1 X140.627 Y140.572 E96.21836
G1 X140.164 Y141.002 E96.24989
G1 X139.65 Y141.371 E96.28145
G1 X139.094 Y141.671 E96.31297
G1 X138.505 Y141.899 E96.34448
G1 X137.891 Y142.051 E96.37604
G1 X137 Y142.131 E96.42067
G1 X83 Y142.132 E99.11474
G1 X82.369 Y142.092 E99.14629
G1 X81.748 Y141.973 E99.17783
G1 X81.148 Y141.776 E99.20934
G1 X80.576 Y141.505 E99.24092
G1 X80.044 Y141.165 E99.27242
G1 X79.559 Y140.759 E99.30397
G1 X79.129 Y140.296 E99.3355
G1 X78.76 Y139.782 E99.36706
G1 X78.46 Y139.226 E99.39858
G1 X78.232 Y138.637 E99.43009
G1 X78.08 Y138.023 E99.46165
G1 X78 Y137.132 E99.50628
G1 X78 Y82.862 E102.21382
G1 X78.04 Y82.231 E102.24537
G1 X78.159 Y81.61 E102.27691
G1 X78.356 Y81.01 E102.30842
G1 X78.627 Y80.438 E102.34
G1 X78.967 Y79.906 E102.3715
G1 X79.373 Y79.421 E102.40305
G1 X79.836 Y78.991 E102.43458
G1 X80.35 Y78.622 E102.46614
G0 F7500 X80.732 Y78.86
G1 F1500 X81.278 Y78.596 E102.4964
G1 X81.854 Y78.407 E102.52664
G1 X82.45 Y78.295 E102.5569
G1 X83 Y78.262 E102.58439
G1 X137 Y78.263 E105.27846
G1 X137.605 Y78.303 E105.30871
G1 X138.2 Y78.422 E105.33898
G1 X138.773 Y78.618 E105.36919
G1 X139.316 Y78.889 E105.39947
G1 X139.819 Y79.228 E105.42973
G1 X140.272 Y79.63 E105.45995
G1 X140.669 Y80.088 E105.49019
G1 X141.002 Y80.595 E105.52045
G1 X141.266 Y81.141 E105.55071
