;FLAVOR:Marlin
;TIME:4724
;Filament used: 6.87884m
;Layer height: 0.4
;MINX:77.2
;MINY:77.2
;MINZ:0.3
;MAXX:142.8
;MAXY:142.8
;MAXZ:25.1
;Generated with Cura_SteamEngine 5.2.1
M140 S60
M105
M190 S60
M104 S200
M105
M109 S200
M82 ;absolute extrusion mode
G21 ;metric values
G90 ;absolute positioning
M82 ;set extruder to absolute mode
M107 ;start with the fan off
G28 X0 Y0 ;move X/Y to min endstops
G28 Z0 ;move Z to min endstops
G1 Z15.0 F9000 ;move the platform down 15mm
G92 E0 ;zero the extruded length
G1 F200 E3 ;extrude 3mm of feed stock
G92 E0 ;zero the extruded length again
G1 F9000;Put printing message on LCD screen
M117 Printing..0
G92 E0
G92 E0
G1 F1500 E-6.5
;LAYER_COUNT:63
;LAYER:0
M107
M204 S1000
G0 F7500 X79.623 Y79.349 Z0.3
;TYPE:SKIRT
G1 F1500 E0
G1 X80.222 Y78.834 E0.03941
G1 X80.87 Y78.383 E0.0788
G1 X81.561 Y77.999 E0.11824
G1 X82.286 Y77.687 E0.15762
G1 X83.039 Y77.45 E0.197
G1 X83.813 Y77.291 E0.23642
G1 X84.598 Y77.21 E0.27579
G1 X85 Y77.2 E0.29586
G1 X135 Y77.2 E2.79037
G1 X135.789 Y77.24 E2.82978
G1 X136.569 Y77.359 E2.86914
G1 X137.334 Y77.557 E2.90857
G1 X138.074 Y77.831 E2.94794
G1 X138.783 Y78.179 E2.98734
G1 X139.454 Y78.597 E3.02678
G1 X140.078 Y79.08 E3.06615
G1 X140.651 Y79.623 E3.10553
G1 X141.166 Y80.222 E3.14494
G1 X141.617 Y80.87 E3.18433
G1 X142.001 Y81.561 E3.22377
G1 X142.313 Y82.286 E3.26315
G1 X142.55 Y83.039 E3.30253
G1 X142.709 Y83.813 E3.34195
G1 X142.79 Y84.598 E3.38133
G1 X142.8 Y85 E3.40139
G1 X142.8 Y135 E5.8959
G1 X142.76 Y135.789 E5.93531
G1 X142.641 Y136.569 E5.97468
G1 X142.443 Y137.334 E6.0141
G1 X142.169 Y138.074 E6.05347
G1 X141.821 Y138.783 E6.09287
G1 X141.403 Y139.454 E6.13231
G1 X140.92 Y140.078 E6.17168
G1 X140.377 Y140.651 E6.21106
G1 X139.778 Y141.166 E6.25048
G1 X139.13 Y141.617 E6.28986
G1 X138.439 Y142.001 E6.3293
G1 X137.714 Y142.313 E6.36868
G1 X136.961 Y142.55 E6.40806
G1 X136.187 Y142.709 E6.44749
G1 X135.402 Y142.79 E6.48686
G1 X135 Y142.8 E6.50692
G1 X85 Y142.8 E9.00143
G1 X84.211 Y142.76 E9.04084
G1 X83.431 Y142.641 E9.08021
G1 X82.666 Y142.443 E9.11963
G1 X81.926 Y142.169 E9.159
G1 X81.217 Y141.821 E9.1984
G1 X80.546 Y141.403 E9.23784
G1 X79.922 Y140.92 E9.27721
G1 X79.349 Y140.377 E9.3166
G1 X78.834 Y139.778 E9.35601
G1 X78.383 Y139.13 E9.3954
G1 X77.999 Y138.439 E9.43484
G1 X77.687 Y137.714 E9.47421
G1 X77.45 Y136.961 E9.5136
G1 X77.291 Y136.187 E9.55302
G1 X77.21 Y135.402 E9.59239
G1 X77.2 Y135 E9.61245
G1 X77.2 Y85 E12.10696
G1 X77.24 Y84.211 E12.14638
G1 X77.359 Y83.431 E12.18574
G1 X77.557 Y82.666 E12.22516
G1 X77.831 Y81.926 E12.26453
G1 X78.179 Y81.217 E12.30394
G1 X78.597 Y80.546 E12.34338
G1 X79.08 Y79.922 E12.38274
G1 X79.623 Y79.349 E12.42213
G0 F7500 X80.016 Y79.53
G1 F1500 X80.611 Y79.042 E12.46052
G1 X81.253 Y78.619 E12.49888
G1 X81.936 Y78.264 E12.53728
G1 X82.651 Y77.983 E12.57561
G1 X83.393 Y77.777 E12.61403
G1 X84.151 Y77.649 E12.65238
G1 X85 Y77.6 E12.69481
G1 X135 Y77.6 E15.18932
G1 X135.768 Y77.64 E15.22768
G1 X136.528 Y77.759 E15.26606
G1 X137.271 Y77.957 E15.30442
G1 X137.99 Y78.231 E15.34281
G1 X138.676 Y78.578 E15.38117
G1 X139.323 Y78.994 E15.41954
G1 X139.923 Y79.475 E15.45791
G1 X140.47 Y80.016 E15.49629
G1 X140.958 Y80.611 E15.53468
G1 X141.381 Y81.253 E15.57304
G1 X141.736 Y81.936 E15.61144
G1 X142.017 Y82.651 E15.64977
G1 X142.223 Y83.393 E15.68819
G1 X142.351 Y84.151 E15.72654
G1 X142.4 Y85 E15.76897
G1 X142.4 Y135 E18.26348
G1 X142.36 Y135.768 E18.30184
G1 X142.241 Y136.528 E18.34022
G1 X142.043 Y137.271 E18.37858
G1 X141.769 Y137.99 E18.41697
G1 X141.422 Y138.676 E18.45533
G1 X141.006 Y139.323 E18.4937
G1 X140.525 Y139.923 E18.53207
G1 X139.984 Y140.47 E18.57045
G1 X139.389 Y140.958 E18.60884
G1 X138.747 Y141.381 E18.6472
G1 X138.064 Y141.736 E18.6856
G1 X137.349 Y142.017 E18.72393
G1 X136.607 Y142.223 E18.76235
G1 X135.849 Y142.351 E18.8007
G1 X135 Y142.4 E18.84313
G1 X85 Y142.4 E21.33764
G1 X84.232 Y142.36 E21.376
G1 X83.472 Y142.241 E21.41438
G1 X82.729 Y142.043 E21.45275
G1 X82.01 Y141.769 E21.49113
G1 X81.324 Y141.422 E21.52949
G1 X80.677 Y141.006 E21.56786
G1 X80.077 Y140.525 E21.60623
G1 X79.53 Y139.984 E21.64461
G1 X79.042 Y139.389 E21.683
G1 X78.619 Y138.747 E21.72136
G1 X78.264 Y138.064 E21.75976
G1 X77.983 Y137.349 E21.79809
G1 X77.777 Y136.607 E21.83651
G1 X77.649 Y135.849 E21.87486
G1 X77.6 Y135 E21.91729
G1 X77.6 Y85 E24.4118
G1 X77.64 Y84.232 E24.45017
G1 X77.759 Y83.472 E24.48854
G1 X77.957 Y82.729 E24.52691
G1 X78.231 Y82.01 E24.56529
G1 X78.578 Y81.324 E24.60365
G1 X78.994 Y80.677 E24.64202
G1 X79.475 Y80.077 E24.68039
G1 X80.016 Y79.53 E24.71877
G0 F7500 X80.408 Y79.716
G1 F1500 X80.998 Y79.257 E24.75607
G1 X81.634 Y78.862 E24.79342
G1 X82.308 Y78.538 E24.83073
G1 X83.013 Y78.288 E24.86804
G1 X83.741 Y78.114 E24.90539
G1 X84.483 Y78.019 E24.94271
G1 X85 Y78 E24.96852
G1 X135 Y78 E27.46303
G1 X135.747 Y78.04 E27.50035
G1 X136.485 Y78.159 E27.53765
G1 X137.207 Y78.357 E27.575
G1 X137.903 Y78.63 E27.6123
G1 X138.566 Y78.977 E27.64963
G1 X139.189 Y79.392 E27.68698
G1 X139.763 Y79.871 E27.72427
G1 X140.284 Y80.408 E27.7616
G1 X140.743 Y80.998 E27.7989
G1 X141.138 Y81.634 E27.83625
G1 X141.462 Y82.308 E27.87356
G1 X141.712 Y83.013 E27.91088
G1 X141.886 Y83.741 E27.94822
G1 X141.981 Y84.483 E27.98554
G1 X142 Y85 E28.01135
G1 X142 Y135 E30.50586
G1 X141.96 Y135.747 E30.54318
G1 X141.841 Y136.485 E30.58048
G1 X141.643 Y137.207 E30.61783
G1 X141.37 Y137.903 E30.65513
G1 X141.023 Y138.566 E30.69246
G1 X140.608 Y139.189 E30.72981
G1 X140.129 Y139.763 E30.7671
G1 X139.592 Y140.284 E30.80443
G1 X139.002 Y140.743 E30.84173
G1 X138.366 Y141.138 E30.87908
G1 X137.692 Y141.462 E30.91639
G1 X136.987 Y141.712 E30.95371
G1 X136.259 Y141.886 E30.99105
G1 X135.517 Y141.981 E31.02837
G1 X135 Y142 E31.05418
G1 X85 Y142 E33.54869
G1 X84.253 Y141.96 E33.58601
G1 X83.515 Y141.841 E33.62331
G1 X82.793 Y141.643 E33.66066
G1 X82.097 Y141.37 E33.69796
G1 X81.434 Y141.023 E33.73529
G1 X80.811 Y140.608 E33.77264
G1 X80.237 Y140.129 E33.80993
G1 X79.716 Y139.592 E33.84726
G1 X79.257 Y139.002 E33.88456
G1 X78.862 Y138.366 E33.92191
G1 X78.538 Y137.692 E33.95922
G1 X78.288 Y136.987 E33.99654
G1 X78.114 Y136.259 E34.03388
G1 X78.019 Y135.517 E34.0712
G1 X78 Y135 E34.09701
G1 X78 Y85 E36.59152
G1 X78.04 Y84.253 E36.62884
G1 X78.159 Y83.515 E36.66614
G1 X78.357 Y82.793 E36.70349
G1 X78.63 Y82.097 E36.74079
G1 X78.977 Y81.434 E36.77812
G1 X79.392 Y80.811 E36.81547
G1 X79.871 Y80.237 E36.85276
G1 X80.408 Y79.716 E36.89009
G0 F7500 X80.799 Y79.909
G1 F1500 X81.384 Y79.479 E36.92631
G1 X82.013 Y79.115 E36.96257
G1 X82.678 Y78.822 E36.99883
G1 X83.371 Y78.604 E37.03507
G1 X84.083 Y78.464 E37.07127
G1 X85 Y78.4 E37.11713
G1 X135 Y78.4 E39.61164
G1 X135.725 Y78.44 E39.64787
G1 X136.442 Y78.559 E39.68413
G1 X137.141 Y78.757 E39.72037
G1 X137.814 Y79.03 E39.75661
G1 X138.453 Y79.375 E39.79284
G1 X139.05 Y79.789 E39.82908
G1 X139.598 Y80.265 E39.8653
G1 X140.091 Y80.799 E39.90155
G1 X140.521 Y81.384 E39.93778
G1 X140.885 Y82.013 E39.97403
G1 X141.178 Y82.678 E40.01029
G1 X141.396 Y83.371 E40.04653
G1 X141.536 Y84.083 E40.08273
G1 X141.6 Y85 E40.12859
G1 X141.6 Y135 E42.6231
G1 X141.56 Y135.725 E42.65933
G1 X141.441 Y136.442 E42.69559
G1 X141.243 Y137.141 E42.73184
G1 X140.97 Y137.814 E42.76807
G1 X140.625 Y138.453 E42.8043
G1 X140.211 Y139.05 E42.84054
G1 X139.735 Y139.598 E42.87676
G1 X139.201 Y140.091 E42.91302
G1 X138.616 Y140.521 E42.94924
G1 X137.987 Y140.885 E42.9855
G1 X137.322 Y141.178 E43.02175
G1 X136.629 Y141.396 E43.05799
G1 X135.917 Y141.536 E43.0942
G1 X135 Y141.6 E43.14006
G1 X85 Y141.6 E45.63457
G1 X84.275 Y141.56 E45.67079
G1 X83.558 Y141.441 E45.70705
G1 X82.859 Y141.243 E45.7433
G1 X82.186 Y140.97 E45.77953
G1 X81.547 Y140.625 E45.81576
G1 X80.95 Y140.211 E45.85201
G1 X80.402 Y139.735 E45.88822
G1 X79.909 Y139.201 E45.92448
G1 X79.479 Y138.616 E45.9607
G1 X79.115 Y137.987 E45.99696
G1 X78.822 Y137.322 E46.03321
G1 X78.604 Y136.629 E46.06946
G1 X78.464 Y135.917 E46.10566
G1 X78.4 Y135 E46.15152
G1 X78.4 Y85 E48.64603
G1 X78.44 Y84.275 E48.68226
G1 X78.559 Y83.558 E48.71852
G1 X78.757 Y82.859 E48.75476
G1 X79.03 Y82.186 E48.79099
G1 X79.375 Y81.547 E48.82722
G1 X79.789 Y80.95 E48.86347
G1 X80.265 Y80.402 E48.89968
G1 X80.799 Y79.909 E48.93594
G0 F7500 X81.189 Y80.109
G1 F1500 X81.768 Y79.709 E48.97105
G1 X82.389 Y79.377 E49.00618
G1 X83.043 Y79.117 E49.0413
G1 X83.723 Y78.933 E49.07644
G1 X84.419 Y78.827 E49.11156
G1 X85 Y78.8 E49.14058
G1 X135 Y78.8 E51.63509
G1 X135.703 Y78.84 E51.67022
G1 X136.397 Y78.959 E51.70535
G1 X137.072 Y79.157 E51.74045
G1 X137.721 Y79.429 E51.77555
G1 X138.335 Y79.774 E51.81069
G1 X138.906 Y80.185 E51.84579
G1 X139.427 Y80.659 E51.88093
G1 X139.891 Y81.189 E51.91607
G1 X140.291 Y81.768 E51.95118
G1 X140.623 Y82.389 E51.98631
G1 X140.883 Y83.043 E52.02143
G1 X141.067 Y83.723 E52.05657
G1 X141.173 Y84.419 E52.0917
G1 X141.2 Y85 E52.12071
G1 X141.2 Y135 E54.61522
G1 X141.16 Y135.703 E54.65035
G1 X141.041 Y136.397 E54.68548
G1 X140.843 Y137.072 E54.72058
G1 X140.571 Y137.721 E54.75568
G1 X140.226 Y138.335 E54.79082
G1 X139.815 Y138.906 E54.82592
G1 X139.341 Y139.427 E54.86106
G1 X138.811 Y139.891 E54.8962
G1 X138.232 Y140.291 E54.93131
G1 X137.611 Y140.623 E54.96645
G1 X136.957 Y140.883 E55.00156
G1 X136.277 Y141.067 E55.0367
G1 X135.581 Y141.173 E55.07183
G1 X135 Y141.2 E55.10084
G1 X85 Y141.2 E57.59535
G1 X84.297 Y141.16 E57.63048
G1 X83.603 Y141.041 E57.66561
G1 X82.928 Y140.843 E57.70071
G1 X82.279 Y140.571 E57.73582
G1 X81.665 Y140.226 E57.77095
G1 X81.094 Y139.815 E57.80605
G1 X80.573 Y139.341 E57.84119
G1 X80.109 Y138.811 E57.87634
G1 X79.709 Y138.232 E57.91144
G1 X79.377 Y137.611 E57.94658
G1 X79.117 Y136.957 E57.98169
G1 X78.933 Y136.277 E58.01683
G1 X78.827 Y135.581 E58.05196
G1 X78.8 Y135 E58.08098
G1 X78.8 Y85 E60.57549
G1 X78.84 Y84.297 E60.61061
G1 X78.959 Y83.603 E60.64574
G1 X79.157 Y82.928 E60.68084
G1 X79.429 Y82.279 E60.71595
G1 X79.774 Y81.665 E60.75108
G1 X80.185 Y81.094 E60.78618
G1 X80.659 Y80.573 E60.82132
G1 X81.189 Y80.109 E60.85647
G0 F7500 X81.578 Y80.317
G1 F1500 X82.15 Y79.948 E60.89043
G1 X82.762 Y79.649 E60.92441
G1 X83.404 Y79.424 E60.95835
G1 X84.069 Y79.275 E60.99235
G1 X85 Y79.2 E61.03895
G1 X135 Y79.2 E63.53346
G1 X135.68 Y79.24 E63.56744
G1 X136.35 Y79.359 E63.60139
G1 X137.002 Y79.556 E63.63537
G1 X137.626 Y79.828 E63.66933
G1 X138.214 Y80.172 E63.70332
G1 X138.758 Y80.582 E63.7373
G1 X139.249 Y81.053 E63.77125
G1 X139.683 Y81.578 E63.80523
G1 X140.052 Y82.15 E63.83919
G1 X140.351 Y82.762 E63.87317
G1 X140.576 Y83.404 E63.90711
G1 X140.725 Y84.069 E63.94111
G1 X140.8 Y85 E63.98771
G1 X140.8 Y135 E66.48222
G1 X140.76 Y135.68 E66.5162
G1 X140.641 Y136.35 E66.55015
G1 X140.444 Y137.002 E66.58413
G1 X140.172 Y137.626 E66.6181
G1 X139.828 Y138.214 E66.65208
G1 X139.418 Y138.758 E66.68607
G1 X138.947 Y139.249 E66.72001
G1 X138.422 Y139.683 E66.754
G1 X137.85 Y140.052 E66.78796
G1 X137.238 Y140.351 E66.82194
G1 X136.596 Y140.576 E66.85588
G1 X135.931 Y140.725 E66.88988
G1 X135 Y140.8 E66.93647
G1 X85 Y140.8 E69.43098
G1 X84.32 Y140.76 E69.46497
G1 X83.65 Y140.641 E69.49892
G1 X82.998 Y140.444 E69.5329
G1 X82.374 Y140.172 E69.56686
G1 X81.786 Y139.828 E69.60085
G1 X81.242 Y139.418 E69.63483
G1 X80.751 Y138.947 E69.66878
G1 X80.317 Y138.422 E69.70276
G1 X79.948 Y137.85 E69.73672
G1 X79.649 Y137.238 E69.7707
G1 X79.424 Y136.596 E69.80464
G1 X79.275 Y135.931 E69.83864
G1 X79.2 Y135 E69.88524
G1 X79.2 Y85 E72.37975
G1 X79.24 Y84.32 E72.41373
G1 X79.359 Y83.65 E72.44768
G1 X79.556 Y82.998 E72.48166
G1 X79.828 Y82.374 E72.51562
G1 X80.172 Y81.786 E72.54961
G1 X80.582 Y81.242 E72.5836
G1 X81.053 Y80.751 E72.61754
G1 X81.578 Y80.317 E72.65152
G0 F7500 X81.965 Y80.534
G1 F1500 X82.529 Y80.198 E72.68428
G1 X83.131 Y79.934 E72.71707
G1 X83.76 Y79.744 E72.74985
G1 X84.407 Y79.633 E72.7826
G1 X85 Y79.6 E72.81223
G1 X135 Y79.6 E75.30674
G1 X135.656 Y79.64 E75.33953
G1 X136.302 Y79.759 E75.3723
G1 X136.929 Y79.956 E75.40509
G1 X137.527 Y80.228 E75.43787
G1 X138.088 Y80.57 E75.47065
G1 X138.603 Y80.978 E75.50343
G1 X139.065 Y81.445 E75.5362
G1 X139.466 Y81.965 E75.56896
G1 X139.802 Y82.529 E75.60172
G1 X140.066 Y83.131 E75.63451
G1 X140.256 Y83.76 E75.66729
G1 X140.367 Y84.407 E75.70004
G1 X140.4 Y85 E75.72967
G1 X140.4 Y135 E78.22418
G1 X140.36 Y135.656 E78.25697
G1 X140.241 Y136.302 E78.28974
G1 X140.044 Y136.929 E78.32253
G1 X139.772 Y137.527 E78.35531
G1 X139.43 Y138.088 E78.38809
G1 X139.022 Y138.603 E78.42087
G1 X138.555 Y139.065 E78.45364
G1 X138.035 Y139.466 E78.4864
G1 X137.471 Y139.802 E78.51915
G1 X136.869 Y140.066 E78.55195
G1 X136.24 Y140.256 E78.58473
G1 X135.593 Y140.367 E78.61748
G1 X135 Y140.4 E78.64711
G1 X85 Y140.4 E81.14162
G1 X84.344 Y140.36 E81.17441
G1 X83.698 Y140.241 E81.20718
G1 X83.071 Y140.044 E81.23997
G1 X82.473 Y139.772 E81.27275
G1 X81.912 Y139.43 E81.30552
G1 X81.397 Y139.022 E81.3383
G1 X80.935 Y138.555 E81.37108
G1 X80.534 Y138.035 E81.40384
G1 X80.198 Y137.471 E81.43659
G1 X79.934 Y136.869 E81.46939
G1 X79.744 Y136.24 E81.50217
G1 X79.633 Y135.593 E81.53492
G1 X79.6 Y135 E81.56455
G1 X79.6 Y85 E84.05906
G1 X79.64 Y84.344 E84.09185
G1 X79.759 Y83.698 E84.12462
G1 X79.956 Y83.071 E84.15741
G1 X80.228 Y82.473 E84.19018
G1 X80.57 Y81.912 E84.22296
G1 X80.978 Y81.397 E84.25574
G1 X81.445 Y80.935 E84.28852
G1 X81.965 Y80.534 E84.32128
G0 F7500 X82.35 Y80.76
G1 F1500 X82.906 Y80.46 E84.3528
G1 X83.495 Y80.232 E84.38431
G1 X84.109 Y80.08 E84.41586
G1 X85 Y80 E84.46049
G1 X135 Y80 E86.955
G1 X135.631 Y80.04 E86.98655
G1 X136.252 Y80.159 E87.01809
G1 X136.852 Y80.356 E87.0496
G1 X137.424 Y80.627 E87.08118
G1 X137.956 Y80.967 E87.11268
G1 X138.441 Y81.373 E87.14423
G1 X138.871 Y81.836 E87.17576
G1 X139.24 Y82.35 E87.20732
G1 X139.54 Y82.906 E87.23884
G1 X139.768 Y83.495 E87.27035
G1 X139.92 Y84.109 E87.30191
G1 X140 Y85 E87.34654
G1 X140 Y135 E89.84105
G1 X139.96 Y135.631 E89.8726
G1 X139.841 Y136.252 E89.90414
G1 X139.644 Y136.852 E89.93565
G1 X139.373 Y137.424 E89.96723
G1 X139.033 Y137.956 E89.99872
G1 X138.627 Y138.441 E90.03028
G1 X138.164 Y138.871 E90.0618
G1 X137.65 Y139.24 E90.09337
G1 X137.094 Y139.54 E90.12489
G1 X136.505 Y139.768 E90.1564
G1 X135.891 Y139.92 E90.18796
G1 X135 Y140 E90.23259
G1 X85 Y140 E92.7271
G1 X84.369 Y139.96 E92.75864
G1 X83.748 Y139.841 E92.79019
G1 X83.148 Y139.644 E92.8217
G1 X82.576 Y139.373 E92.85327
G1 X82.044 Y139.033 E92.88477
G1 X81.559 Y138.627 E92.91633
G1 X81.129 Y138.164 E92.94785
G1 X80.76 Y137.65 E92.97942
G1 X80.46 Y137.094 E93.01094
G1 X80.232 Y136.505 E93.04245
G1 X80.08 Y135.891 E93.07401
G1 X80 Y135 E93.11864
G1 X80 Y85 E95.61315
G1 X80.04 Y84.369 E95.64469
G1 X80.159 Y83.748 E95.67624
G1 X80.356 Y83.148 E95.70774
G1 X80.627 Y82.576 E95.73932
G1 X80.967 Y82.044 E95.77082
G1 X81.373 Y81.559 E95.80238
G1 X81.836 Y81.129 E95.8339
G1 X82.35 Y80.76 E95.86547
G0 F7500 X82.732 Y80.998
G1 F1500 X83.278 Y80.734 E95.89573
G1 X83.854 Y80.545 E95.92597
G1 X84.45 Y80.433 E95.95623
G1 X85 Y80.4 E95.98371
G1 X135 Y80.4 E98.47822
G1 X135.605 Y80.44 E98.50847
G1 X136.199 Y80.559 E98.5387
G1 X136.773 Y80.755 E98.56896
G1 X137.316 Y81.026 E98.59923
G1 X137.819 Y81.365 E98.6295
G1 X138.272 Y81.767 E98.65971
G1 X138.669 Y82.225 E98.68995
G1 X139.002 Y82.732 E98.72021
G1 X139.266 Y83.278 E98.75047
G1 X139.455 Y83.854 E98.78072
G1 X139.567 Y84.45 E98.81097
G1 X139.6 Y85 E98.83846
G1 X139.6 Y135 E101.33297
G1 X139.56 Y135.605 E101.36322
G1 X139.441 Y136.199 E101.39344
G1 X139.245 Y136.773 E101.4237
G1 X138.974 Y137.316 E101.45398
G1 X138.635 Y137.819 E101.48424
